22x22/actions/kstars_mw.svg

<svg xmlns="http://www.w3.org/2000/svg" viewBox="0 0 22 22">
  <defs id="defs3051">
    <style type="text/css" id="current-color-scheme">
      .ColorScheme-Text {
        color:#5d656b;
      }
      </style>
  </defs>
 <path 
     style="fill:currentColor;fill-opacity:1;stroke:none" 
     d="M 13.931641 3 C 12.836484 3.027 11.833639 2.9583531 10.703125 3.2519531 L 10.703125 3.25 C 8.80162 4.0465 7.6923813 5.8106563 7.1933594 7.7226562 C 7.1534984 7.8812562 6.9335938 8.5118094 6.9335938 9.2871094 L 6.9335938 12.154297 C 6.8754468 13.711197 5.7694444 14.663484 4.6191406 15.521484 C 4.0834089 15.900084 3.5249206 16.229641 3 16.619141 L 3.0039062 19 C 5.9728071 18.99 7.2843621 18.979375 9.2773438 18.984375 C 10.881628 16.521975 11.947143 14.792522 11.970703 12.232422 L 11.970703 9.2890625 C 12.040483 8.6647625 12.274194 8.0073187 12.78125 7.9492188 C 13.668538 7.9012187 14.397508 8.1539844 14.875 8.4589844 C 15.140692 8.6305844 15.726147 9.0058594 16.646484 9.0058594 L 18.013672 9.0058594 L 19 9.0058594 L 19 3.9941406 L 17.859375 3.9941406 C 17.054069 4.0591406 16.422819 3.5170531 15.685547 3.2519531 C 15.317995 3.1609531 14.688199 3 13.931641 3 z "
     class="ColorScheme-Text"
     />
</svg>

<svg xmlns="http://www.w3.org/2000/svg" viewBox="0 0 22 22"><path style="fill:currentColor;fill-opacity:1;stroke:none;color:#5d656b" d="M13.932 3c-1.096.027-2.098-.042-3.229.252V3.25c-1.901.796-3.01 2.56-3.51 4.473-.04.158-.26.789-.26 1.564v2.867c-.058 1.557-1.164 2.51-2.314 3.367-.536.38-1.094.709-1.619 1.098L3.004 19c2.969-.01 4.28-.02 6.273-.016 1.605-2.462 2.67-4.191 2.694-6.752V9.29c.07-.624.303-1.282.81-1.34.888-.048 1.617.205 2.094.51a3.11 3.11 0 0 0 1.771.547H19V3.994h-1.14c-.806.065-1.437-.477-2.174-.742-.368-.091-.998-.252-1.754-.252z"/></svg>
